icons/_assets/star.svg

<svg width="100" height="100" xmlns="http://www.w3.org/2000/svg"><path d="M21.7773732,98 C21.327628,98 20.8778828,97.868834 20.484189,97.6037975 C19.6621028,97.0507367 19.2724126,96.0325098 19.5112981,95.0616108 L27.4118664,62.8732006 L2.97749052,45.1806632 C2.21279024,44.6262501 1.84979116,43.6621123 2.05798181,42.7331324 C2.26483791,41.8041525 3.00151252,41.0915289 3.927694,40.9252049 L35.9650323,35.1593092 L47.8172193,3.52666423 C48.1561964,2.62067217 49.0063082,2.0148745 49.9631844,2 L49.9992174,2 C50.9414136,2 51.7941945,2.57469645 52.1571936,3.45905288 L63.8465649,31.9612925 L95.5462606,30.3480858 C96.4737766,30.2804744 97.4266492,30.8700454 97.8123358,31.7827985 C98.1966877,32.6955517 97.9791552,33.7529932 97.265168,34.4331634 L72.5505355,58.0362848 L80.4804641,88.514128 C80.7166804,89.42012 80.4030598,90.3802011 79.6810653,90.9657154 C78.9604054,91.5498775 77.9634925,91.64859 77.14541,91.2172296 L50.2234228,77.044539 L23.1759873,97.529425 C22.7622751,97.8417894 22.2698242,98 21.7773732,98 L21.7773732,98 Z" fill="#134B45" fill-rule="evenodd"/></svg>

<svg width="100" height="100" xmlns="http://www.w3.org/2000/svg"><path d="M21.777 98c-.45 0-.9-.131-1.293-.396a2.38 2.38 0 0 1-.973-2.542l7.9-32.189L2.978 45.181a2.381 2.381 0 0 1-.919-2.448 2.347 2.347 0 0 1 1.87-1.808l32.037-5.766L47.817 3.527A2.335 2.335 0 0 1 49.963 2H50c.942 0 1.795.575 2.158 1.46l11.69 28.501 31.7-1.613c.927-.068 1.88.522 2.265 1.435.385.913.167 1.97-.547 2.65L72.551 58.036l7.93 30.478a2.383 2.383 0 0 1-.8 2.452 2.313 2.313 0 0 1-2.536.251L50.223 77.045 23.176 97.529a2.32 2.32 0 0 1-1.399.471z" fill="#134B45" fill-rule="evenodd"/></svg>
